X:183
T:Galopede
M:4/4
L:1/8
K:G
dc | B2 Bc A2 AB | G2 G2 G2 AB | cBcd edcB | A2 A2 A2 dc | 
B2 Bc A2 AB | G2 G2 G2 AB | cBAG FGAF | G2 G2 G2 :| 
Bc | d2 gf e2 e2 | dcBc A2Bc | d2 gf edcB | A2 A2 A2 Bc | 
d2 gf e2 e2 | dcBc A2 dc | BdBG AcAF | G2 G2 G2 | 
Bc | d2 d2 d2 g2 | d2 d2 d2 g2 | d2 d2 edcB | A2 A2 A2 Bc | 
d2 d2 d2 g2 | d2 d2 d2 g2 | edcB AcBA | G2 G2 G2 | 

